!!!OTL: Einladung in's Freie.
!!!OTL-incipit:KOMM HINAUS MIT INS FELD
!!!COM: Volksweise
!!!ARE: Europa, Mitteleuropa, Deutschland
!!!SCT: F0332
!!!TXL: @@DE
!!!YEM: Copyright 1995, estate of Helmut Schaffrath.
**kern	**text
*ICvox	*
*clefG2	*
*M3/4	*
*k[f#]	*
*G:	*
!LO:TX:a:t=Etwas lebhaft.	!
!LO:TX:a:t=P:only the highest voice encoded:problem	!
{8g	1._Komm
8a	hin-
=1	=1
4b	-aus
4dd	mit
4cc	in's
=2	=2
2a}	Feld,
{8g	wenn
8a	der
=3	=3
4b	Lenʒ
4dd	dir
4cc	ge-
=4	=4
2a}	-fällt;
{4dd	ſchon
=5	=5
4ee	ſchmückt
4cc	er
4a	mit
=6	=6
4dd	Blumen
4b/}	.
{4g	und
=7	=7
4a	Blü-
8aL	-then
8gJ	.
8aL	die
8bJ	.
=8	=8
4g	Welt.
4r}	.
==	==
!!!AGN: Jugend - Lied, Natur, Wander - Lied
!!!ONB: ESAC (Essen Associative Code) Database: FINK
!!!AMT: simple triple
!!!AIN: vox
!!!EED: Helmut Schaffrath
!!!EEV: 1.0
!!!GTL: Jugendlieder
!!Text: E. Anschuetz
!!!source: Musikalischer Hausschatz der Deutschen. Eine Sammlung von über 1000 Liedern und Gesängen mit Singstimmen und Klavierbegleitung. Leipzig, Litterarisches Verlags-Haus.
!!!page: 197
!!!URL-scan: https://www.digitale-sammlungen.de/en/view/bsb11144622?page=194,195
!!!ENC: Anna Maria Matuszewska
!!!EEV: 2024/07/30
*-	*-